X: 2103
T: The Gravel Walks
B: nick
B: steve tunes
M:4/4
Q: 1/4=100
K:Adorian
V:1 
|:"Am"A2 eA (3cBA eA|A2 eA "G"BAGB|"Am"A2 eA (3Bcd ef|"G"gedc BAGB:|
 "Am"A2 aA gAfA|A2 eA "G"BAGB|"Am"A2 aA gAfA|"G"gedc BAGB|
 "Am"A2 aA gAfA|A2 eA "G"BAGB|"Am"ABcd efga|"G"gedc BAGB|
 |:"Am"(3cBA BG A2 AB|cAAd "G"BAGB|"Am"(3cBA BG ABcd|"G"efge dBGB:|
 |:"C"c2 gc acgc|c2 gc "G"BAGB|"C"c2 gc acga|"G"gedc BAGB|
 "C"c2 gc acgc|c2 gc "G"BAGB|"Am"ABcd efga|"G"gedc BAGB:|
% abcbook-tune_id 6345614282942c5d143cac8e


% abcbook-boost 0
% abcbook-tablature 
% abcbook-transpose 
% abcbook-lastupdated 1666006130169
% abcbook-soundfonts 
% abcbook-repeats 3


